build/system/BackOutline.svg

<svg xmlns="http://www.w3.org/2000/svg" fill="none" viewBox="0 0 24 24" focusable="false"><path d="M0 0H24V24H0z"/><path fill="#74767B" d="M9.73251 16.0174C9.91251 16.0174 10.0825 15.9474 10.2125 15.8074C10.4525 15.5374 10.4325 15.1274 10.1725 14.8874L7.28136 12.1674L15.35 12.1674C16.6479 12.1674 17.7 13.2195 17.7 14.5174L17.7 16.2971C17.7 16.656 17.991 16.9471 18.35 16.9471C18.709 16.9471 19 16.656 19 16.2971L19 14.5174C19 12.5015 17.3658 10.8674 15.35 10.8674L7.27185 10.8674L7.27194 10.8519L10.1325 8.43738C10.4025 8.19738 10.4125 7.78738 10.1725 7.51738C9.93249 7.25738 9.52249 7.23738 9.25249 7.47738L5.2325 10.9819C4.9225 11.2619 4.9225 11.7419 5.2325 12.0219L9.29251 15.8474C9.42251 15.9674 9.57251 16.0174 9.73251 16.0174Z"/></svg>

<svg xmlns="http://www.w3.org/2000/svg" fill="none" viewBox="0 0 24 24" focusable="false"><path fill="#74767B" d="M9.73 16.01c.18 0 .35-.07.48-.21.24-.27.22-.68-.04-.92l-2.89-2.72h8.07c1.29 0 2.35 1.05 2.35 2.35v1.78c0 .36.29.65.65.65.35 0 .65-.29.65-.65v-1.78c0-2.01-1.64-3.65-3.65-3.65H7.27v-.01l2.86-2.42a.65.65 0 0 0 .04-.92.66.66 0 0 0-.92-.04l-4.02 3.51c-.31.28-.31.76 0 1.04l4.06 3.82c.13.12.28.17.44.17"/></svg>
